X: 4038
T: GOWRIE
R: Strathspey.
%R: strathspey
B: James Kerr "Merry Melodies" v.4 p.07 #38
Z: 2016 John Chambers <jc:trillian.mit.edu>
M: C
L: 1/16
K: D
uA2 |\
vFuA3 vA3uB vd3veud3uc | B3A Bd3 e3fe3A |\
FA3 A3B d3ef3e | dcBA d3f (e4d2) :|
|: g2 |\
fa3 d3e f3ga3f | gb3 e3f g3ab3g |\
fa3 e3f d3ef3e | dcBA d3f (e4d2) :|

%%sep 1 1 500
%%sep 1 1 500

